static/img/kroki/2115ad87af43bf89b5ae5bec3af392fc.svg

<?xml version="1.0" encoding="us-ascii" standalone="no"?><svg xmlns="http://www.w3.org/2000/svg" xmlns:xlink="http://www.w3.org/1999/xlink" contentStyleType="text/css" height="451px" preserveAspectRatio="none" style="width:837px;height:451px;" version="1.1" viewBox="0 0 837 451" width="837px" zoomAndPan="magnify"><defs/><g><!--class aws_bedrock_agent--><g id="elem_aws_bedrock_agent"><rect codeLine="23" fill="#3D176E" height="39.7891" id="aws_bedrock_agent" rx="2.5" ry="2.5" style="stroke:#000D19;stroke-width:0.5;" width="206" x="319.5" y="106.79"/><ellipse cx="334.5" cy="126.6845" fill="#ADD1B2" rx="11" ry="11" style="stroke:#181818;stroke-width:1.0;"/><path d="M337.4688,132.3252 Q336.8906,132.622 336.25,132.7627 Q335.6094,132.9189 334.9063,132.9189 Q332.4063,132.9189 331.0781,131.2783 Q329.7656,129.622 329.7656,126.497 Q329.7656,123.372 331.0781,121.7158 Q332.4063,120.0595 334.9063,120.0595 Q335.6094,120.0595 336.25,120.2158 Q336.9063,120.372 337.4688,120.6689 L337.4688,123.3877 Q336.8438,122.8095 336.25,122.5439 Q335.6563,122.2627 335.0313,122.2627 Q333.6875,122.2627 333,123.3408 Q332.3125,124.4033 332.3125,126.497 Q332.3125,128.5908 333,129.6689 Q333.6875,130.7314 335.0313,130.7314 Q335.6563,130.7314 336.25,130.4658 Q336.8438,130.1845 337.4688,129.6064 L337.4688,132.3252 Z " fill="#000000"/><text fill="#D9B8FF" font-family="Helvetica" font-size="17" lengthAdjust="spacing" textLength="164" x="353.5" y="132.5698">aws_bedrock_agent</text></g><!--class aws_bedrock_agent_knowledge_base--><g id="elem_aws_bedrock_agent_knowledge_base"><rect codeLine="26" fill="#3D176E" height="39.7891" id="aws_bedrock_agent_knowledge_base" rx="2.5" ry="2.5" style="stroke:#000D19;stroke-width:0.5;" width="353" x="7" y="206.58"/><ellipse cx="22" cy="226.4745" fill="#ADD1B2" rx="11" ry="11" style="stroke:#181818;stroke-width:1.0;"/><path d="M24.9688,232.1152 Q24.3906,232.412 23.75,232.5527 Q23.1094,232.7089 22.4063,232.7089 Q19.9063,232.7089 18.5781,231.0683 Q17.2656,229.412 17.2656,226.287 Q17.2656,223.162 18.5781,221.5058 Q19.9063,219.8495 22.4063,219.8495 Q23.1094,219.8495 23.75,220.0058 Q24.4063,220.162 24.9688,220.4589 L24.9688,223.1777 Q24.3438,222.5995 23.75,222.3339 Q23.1563,222.0527 22.5313,222.0527 Q21.1875,222.0527 20.5,223.1308 Q19.8125,224.1933 19.8125,226.287 Q19.8125,228.3808 20.5,229.4589 Q21.1875,230.5214 22.5313,230.5214 Q23.1563,230.5214 23.75,230.2558 Q24.3438,229.9745 24.9688,229.3964 L24.9688,232.1152 Z " fill="#000000"/><text fill="#D9B8FF" font-family="Helvetica" font-size="17" lengthAdjust="spacing" textLength="311" x="41" y="232.3598">aws_bedrock_agent_knowledge_base</text></g><!--class aws_bedrock_agent_version--><g id="elem_aws_bedrock_agent_version"><rect codeLine="29" fill="#3D176E" height="39.7891" id="aws_bedrock_agent_version" rx="2.5" ry="2.5" style="stroke:#000D19;stroke-width:0.5;" width="276" x="537.5" y="206.58"/><ellipse cx="552.5" cy="226.4745" fill="#ADD1B2" rx="11" ry="11" style="stroke:#181818;stroke-width:1.0;"/><path d="M555.4688,232.1152 Q554.8906,232.412 554.25,232.5527 Q553.6094,232.7089 552.9063,232.7089 Q550.4063,232.7089 549.0781,231.0683 Q547.7656,229.412 547.7656,226.287 Q547.7656,223.162 549.0781,221.5058 Q550.4063,219.8495 552.9063,219.8495 Q553.6094,219.8495 554.25,220.0058 Q554.9063,220.162 555.4688,220.4589 L555.4688,223.1777 Q554.8438,222.5995 554.25,222.3339 Q553.6563,222.0527 553.0313,222.0527 Q551.6875,222.0527 551,223.1308 Q550.3125,224.1933 550.3125,226.287 Q550.3125,228.3808 551,229.4589 Q551.6875,230.5214 553.0313,230.5214 Q553.6563,230.5214 554.25,230.2558 Q554.8438,229.9745 555.4688,229.3964 L555.4688,232.1152 Z " fill="#000000"/><text fill="#D9B8FF" font-family="Helvetica" font-size="17" lengthAdjust="spacing" textLength="234" x="571.5" y="232.3598">aws_bedrock_agent_version</text></g><!--class aws_bedrock_foundation_model--><g id="elem_aws_bedrock_foundation_model"><rect codeLine="32" fill="#3D176E" height="39.7891" id="aws_bedrock_foundation_model" rx="2.5" ry="2.5" style="stroke:#000D19;stroke-width:0.5;" width="310" x="520.5" y="7"/><ellipse cx="535.5" cy="26.8945" fill="#ADD1B2" rx="11" ry="11" style="stroke:#181818;stroke-width:1.0;"/><path d="M538.4688,32.5352 Q537.8906,32.832 537.25,32.9727 Q536.6094,33.1289 535.9063,33.1289 Q533.4063,33.1289 532.0781,31.4883 Q530.7656,29.832 530.7656,26.707 Q530.7656,23.582 532.0781,21.9258 Q533.4063,20.2695 535.9063,20.2695 Q536.6094,20.2695 537.25,20.4258 Q537.9063,20.582 538.4688,20.8789 L538.4688,23.5977 Q537.8438,23.0195 537.25,22.7539 Q536.6563,22.4727 536.0313,22.4727 Q534.6875,22.4727 534,23.5508 Q533.3125,24.6133 533.3125,26.707 Q533.3125,28.8008 534,29.8789 Q534.6875,30.9414 536.0313,30.9414 Q536.6563,30.9414 537.25,30.6758 Q537.8438,30.3945 538.4688,29.8164 L538.4688,32.5352 Z " fill="#000000"/><text fill="#D9B8FF" font-family="Helvetica" font-size="17" lengthAdjust="spacing" textLength="268" x="554.5" y="32.7798">aws_bedrock_foundation_model</text></g><!--class aws_bedrock_guardrail--><g id="elem_aws_bedrock_guardrail"><rect codeLine="35" fill="#3D176E" height="39.7891" id="aws_bedrock_guardrail" rx="2.5" ry="2.5" style="stroke:#000D19;stroke-width:0.5;" width="233" x="466" y="306.37"/><ellipse cx="481" cy="326.2645" fill="#ADD1B2" rx="11" ry="11" style="stroke:#181818;stroke-width:1.0;"/><path d="M483.9688,331.9052 Q483.3906,332.202 482.75,332.3427 Q482.1094,332.4989 481.4063,332.4989 Q478.9063,332.4989 477.5781,330.8583 Q476.2656,329.202 476.2656,326.077 Q476.2656,322.952 477.5781,321.2958 Q478.9063,319.6395 481.4063,319.6395 Q482.1094,319.6395 482.75,319.7958 Q483.4063,319.952 483.9688,320.2489 L483.9688,322.9677 Q483.3438,322.3895 482.75,322.1239 Q482.1563,321.8427 481.5313,321.8427 Q480.1875,321.8427 479.5,322.9208 Q478.8125,323.9833 478.8125,326.077 Q478.8125,328.1708 479.5,329.2489 Q480.1875,330.3114 481.5313,330.3114 Q482.1563,330.3114 482.75,330.0458 Q483.3438,329.7645 483.9688,329.1864 L483.9688,331.9052 Z " fill="#000000"/><text fill="#D9B8FF" font-family="Helvetica" font-size="17" lengthAdjust="spacing" textLength="191" x="500" y="332.1498">aws_bedrock_guardrail</text></g><!--class aws_iam_role--><g id="elem_aws_iam_role"><rect codeLine="38" fill="#3D176E" height="39.7891" id="aws_iam_role" rx="2.5" ry="2.5" style="stroke:#000D19;stroke-width:0.5;" width="157" x="328" y="7"/><ellipse cx="343" cy="26.8945" fill="#ADD1B2" rx="11" ry="11" style="stroke:#181818;stroke-width:1.0;"/><path d="M345.9688,32.5352 Q345.3906,32.832 344.75,32.9727 Q344.1094,33.1289 343.4063,33.1289 Q340.9063,33.1289 339.5781,31.4883 Q338.2656,29.832 338.2656,26.707 Q338.2656,23.582 339.5781,21.9258 Q340.9063,20.2695 343.4063,20.2695 Q344.1094,20.2695 344.75,20.4258 Q345.4063,20.582 345.9688,20.8789 L345.9688,23.5977 Q345.3438,23.0195 344.75,22.7539 Q344.1563,22.4727 343.5313,22.4727 Q342.1875,22.4727 341.5,23.5508 Q340.8125,24.6133 340.8125,26.707 Q340.8125,28.8008 341.5,29.8789 Q342.1875,30.9414 343.5313,30.9414 Q344.1563,30.9414 344.75,30.6758 Q345.3438,30.3945 345.9688,29.8164 L345.9688,32.5352 Z " fill="#000000"/><text fill="#D9B8FF" font-family="Helvetica" font-size="17" lengthAdjust="spacing" textLength="115" x="362" y="32.7798">aws_iam_role</text></g><!--class aws_kms_key--><g id="elem_aws_kms_key"><rect codeLine="41" fill="#3D176E" height="39.7891" id="aws_kms_key" rx="2.5" ry="2.5" style="stroke:#000D19;stroke-width:0.5;" width="158" x="503.5" y="406.16"/><ellipse cx="518.5" cy="426.0545" fill="#ADD1B2" rx="11" ry="11" style="stroke:#181818;stroke-width:1.0;"/><path d="M521.4688,431.6952 Q520.8906,431.992 520.25,432.1327 Q519.6094,432.2889 518.9063,432.2889 Q516.4063,432.2889 515.0781,430.6483 Q513.7656,428.992 513.7656,425.867 Q513.7656,422.742 515.0781,421.0858 Q516.4063,419.4295 518.9063,419.4295 Q519.6094,419.4295 520.25,419.5858 Q520.9063,419.742 521.4688,420.0389 L521.4688,422.7577 Q520.8438,422.1795 520.25,421.9139 Q519.6563,421.6327 519.0313,421.6327 Q517.6875,421.6327 517,422.7108 Q516.3125,423.7733 516.3125,425.867 Q516.3125,427.9608 517,429.0389 Q517.6875,430.1014 519.0313,430.1014 Q519.6563,430.1014 520.25,429.8358 Q520.8438,429.5545 521.4688,428.9764 L521.4688,431.6952 Z " fill="#000000"/><text fill="#D9B8FF" font-family="Helvetica" font-size="17" lengthAdjust="spacing" textLength="116" x="537.5" y="431.9398">aws_kms_key</text></g><!--link aws_bedrock_agent to aws_bedrock_agent_knowledge_base--><g id="link_aws_bedrock_agent_aws_bedrock_agent_knowledge_base"><path codeLine="44" d="M375.28,147.01 C333.38,164.15 278.0432,186.798 236.1732,203.928 " fill="none" id="aws_bedrock_agent-to-aws_bedrock_agent_knowledge_base" style="stroke:#1A83AF;stroke-width:2.0;"/><polygon fill="#1A83AF" points="230.62,206.2,240.4645,206.4942,235.2477,204.3067,237.4352,199.0899,230.62,206.2" style="stroke:#1A83AF;stroke-width:2.0;"/></g><!--link aws_bedrock_agent to aws_bedrock_agent_version--><g id="link_aws_bedrock_agent_aws_bedrock_agent_version"><path codeLine="45" d="M472.48,147.01 C516.84,164.15 575.7035,186.9069 620.0235,204.0369 " fill="none" id="aws_bedrock_agent-to-aws_bedrock_agent_version" style="stroke:#1A83AF;stroke-width:2.0;"/><polygon fill="#1A83AF" points="625.62,206.2,618.6673,199.2243,620.9562,204.3974,615.7832,206.6864,625.62,206.2" style="stroke:#1A83AF;stroke-width:2.0;"/></g><!--link aws_bedrock_agent to aws_bedrock_guardrail--><g id="link_aws_bedrock_agent_aws_bedrock_guardrail"><path codeLine="46" d="M438.13,146.99 C468.72,184.76 532.3836,263.3875 563.0236,301.2175 " fill="none" id="aws_bedrock_agent-to-aws_bedrock_guardrail" style="stroke:#1A83AF;stroke-width:2.0;"/><polygon fill="#1A83AF" points="566.8,305.88,564.2438,296.3686,563.653,301.9946,558.0271,301.4038,566.8,305.88" style="stroke:#1A83AF;stroke-width:2.0;"/></g><!--link aws_bedrock_agent to aws_kms_key--><g id="link_aws_bedrock_agent_aws_kms_key"><path codeLine="47" d="M419.49,146.81 C414.17,187.26 407.25,283 448.5,346.16 C466.66,373.96 492.8255,390.8045 520.8055,403.3545 " fill="none" id="aws_bedrock_agent-to-aws_kms_key" style="stroke:#1A83AF;stroke-width:2.0;"/><polygon fill="#1A83AF" points="526.28,405.81,519.7052,398.477,521.7179,403.7637,516.4312,405.7764,526.28,405.81" style="stroke:#1A83AF;stroke-width:2.0;"/></g><!--link aws_bedrock_agent_version to aws_bedrock_guardrail--><g id="link_aws_bedrock_agent_version_aws_bedrock_guardrail"><path codeLine="48" d="M657.13,246.8 C640.82,263.94 621.2634,284.5009 604.9734,301.6409 " fill="none" id="aws_bedrock_agent_version-to-aws_bedrock_guardrail" style="stroke:#1A83AF;stroke-width:2.0;"/><polygon fill="#1A83AF" points="600.84,305.99,609.9396,302.222,604.2845,302.3657,604.1407,296.7107,600.84,305.99" style="stroke:#1A83AF;stroke-width:2.0;"/></g><!--link aws_bedrock_agent_version to aws_kms_key--><g id="link_aws_bedrock_agent_version_aws_kms_key"><path codeLine="49" d="M691.54,246.49 C709.91,270.73 735.22,313.42 716.5,346.16 C700.42,374.29 675.4536,390.9448 647.6436,403.2948 " fill="none" id="aws_bedrock_agent_version-to-aws_kms_key" style="stroke:#1A83AF;stroke-width:2.0;"/><polygon fill="#1A83AF" points="642.16,405.73,652.0089,405.733,646.7297,403.7007,648.7619,398.4215,642.16,405.73" style="stroke:#1A83AF;stroke-width:2.0;"/></g><!--link aws_bedrock_foundation_model to aws_bedrock_agent--><g id="link_aws_bedrock_foundation_model_aws_bedrock_agent"><path codeLine="50" d="M625.52,47.22 C581.16,64.36 522.2965,87.1169 477.9765,104.2469 " fill="none" id="aws_bedrock_foundation_model-to-aws_bedrock_agent" style="stroke:#1A83AF;stroke-width:2.0;"/><polygon fill="#1A83AF" points="472.38,106.41,482.2168,106.8964,477.0438,104.6074,479.3327,99.4343,472.38,106.41" style="stroke:#1A83AF;stroke-width:2.0;"/></g><!--link aws_bedrock_foundation_model to aws_bedrock_agent_version--><g id="link_aws_bedrock_foundation_model_aws_bedrock_agent_version"><path codeLine="51" d="M675.5,47.2 C675.5,84.98 675.5,162.26 675.5,200.09 " fill="none" id="aws_bedrock_foundation_model-to-aws_bedrock_agent_version" style="stroke:#1A83AF;stroke-width:2.0;"/><polygon fill="#1A83AF" points="675.5,206.09,679.5,197.09,675.5,201.09,671.5,197.09,675.5,206.09" style="stroke:#1A83AF;stroke-width:2.0;"/></g><!--link aws_bedrock_guardrail to aws_kms_key--><g id="link_aws_bedrock_guardrail_aws_kms_key"><path codeLine="52" d="M582.5,346.59 C582.5,363.73 582.5,382.64 582.5,399.78 " fill="none" id="aws_bedrock_guardrail-to-aws_kms_key" style="stroke:#1A83AF;stroke-width:2.0;"/><polygon fill="#1A83AF" points="582.5,405.78,586.5,396.78,582.5,400.78,578.5,396.78,582.5,405.78" style="stroke:#1A83AF;stroke-width:2.0;"/></g><!--link aws_iam_role to aws_bedrock_agent--><g id="link_aws_iam_role_aws_bedrock_agent"><path codeLine="53" d="M409.66,47.22 C412.47,64.36 415.5687,83.3591 418.3787,100.4891 " fill="none" id="aws_iam_role-to-aws_bedrock_agent" style="stroke:#1A83AF;stroke-width:2.0;"/><polygon fill="#1A83AF" points="419.35,106.41,421.8404,96.8812,418.5406,101.4759,413.9459,98.1762,419.35,106.41" style="stroke:#1A83AF;stroke-width:2.0;"/></g><!--link aws_iam_role to aws_bedrock_agent_knowledge_base--><g id="link_aws_iam_role_aws_bedrock_agent_knowledge_base"><path codeLine="54" d="M379.22,47.04 C357.77,62.46 327.45,85.06 302.5,106.79 C264.65,139.75 228.0527,177.6219 205.4027,201.7919 " fill="none" id="aws_iam_role-to-aws_bedrock_agent_knowledge_base" style="stroke:#1A83AF;stroke-width:2.0;"/><polygon fill="#1A83AF" points="201.3,206.17,210.3728,202.3381,204.719,202.5216,204.5354,196.8677,201.3,206.17" style="stroke:#1A83AF;stroke-width:2.0;"/></g><!--link aws_iam_role to aws_bedrock_agent_version--><g id="link_aws_iam_role_aws_bedrock_agent_version"><path codeLine="55" d="M444.42,47.21 C472.43,62.11 511,83.97 542.5,106.79 C586.1,138.39 627.616,177.6489 652.466,202.2489 " fill="none" id="aws_iam_role-to-aws_bedrock_agent_version" style="stroke:#1A83AF;stroke-width:2.0;"/><polygon fill="#1A83AF" points="656.73,206.47,653.148,197.2956,653.1766,202.9524,647.5199,202.981,656.73,206.47" style="stroke:#1A83AF;stroke-width:2.0;"/></g><!--SRC=[fPD1JuD048Nl_8fDUcvIRBJjnGIRD7ffZFLc31dOWMw0tMPsMrAD_rsmjI8BbEg1oyxtTjwR7TQ28yDiO_Oimon0qevEXDm0GSOy8fNFLQg83Q88el6aNbmeQSu2IyYGtMEwGoD2g1FFQn4c4hLcLvNI7OH9J6eh-U5wGo1rKK9fAjGy1QqzOqW4MuCLCtmMJAEeJjOl7OovExb12rF4aOx8Q3JYxgoEd6tLcVj4hCGRChSwjAKoQDcqMdnHdIvBecBI2lfTR_Nu29mB6RFhojdJmHD9f5_dgpLmbPTq1Ackjj462PNPRt1kfSBPb4UJHlYX3NR2SdGCSkq7o4c5YGzniHFitN4-sef-8bMU8e_H3q1ZDxihVW6XP1iKbPx058IVAOvf6nTlWJY1i001cKygjLmaMV7X_d1ivnk-35nlElOMhyFRimalrnzJNo8y9UmZEgPpskVzbpxjugP-rjDrp-G_siPv_gn4fztJWlImrvDjMe- -qkyadm00]--></g></svg>

<svg xmlns="http://www.w3.org/2000/svg" width="837" height="451" viewBox="0 0 837 451"><rect width="206" height="39.789" x="319.5" y="106.79" fill="#3D176E" rx="2.5" ry="2.5" style="stroke:#000d19;stroke-width:.5"/><circle cx="334.5" cy="126.684" r="11" fill="#ADD1B2" style="stroke:#181818;stroke-width:1"/><path d="M337.469 132.325q-.578.297-1.219.438-.64.156-1.344.156-2.5 0-3.828-1.64-1.312-1.657-1.312-4.782t1.312-4.781q1.328-1.656 3.828-1.656.703 0 1.344.156.656.156 1.219.453v2.719q-.625-.579-1.219-.844-.594-.281-1.219-.281-1.344 0-2.031 1.078-.687 1.062-.687 3.156t.687 3.172q.688 1.062 2.031 1.062.625 0 1.219-.265.594-.281 1.219-.86z"/><text x="353.5" y="132.57" fill="#D9B8FF" font-family="Helvetica" font-size="17" textLength="164">aws_bedrock_agent</text><rect width="353" height="39.789" x="7" y="206.58" fill="#3D176E" rx="2.5" ry="2.5" style="stroke:#000d19;stroke-width:.5"/><circle cx="22" cy="226.475" r="11" fill="#ADD1B2" style="stroke:#181818;stroke-width:1"/><path d="M24.969 232.115q-.578.297-1.219.438-.64.156-1.344.156-2.5 0-3.828-1.64-1.312-1.657-1.312-4.782t1.312-4.781q1.328-1.656 3.828-1.656.703 0 1.344.156.656.156 1.219.453v2.719q-.625-.578-1.219-.844-.594-.281-1.219-.281-1.343 0-2.031 1.078-.687 1.062-.687 3.156t.687 3.172q.688 1.062 2.031 1.062.625 0 1.219-.265.594-.281 1.219-.86z"/><text x="41" y="232.36" fill="#D9B8FF" font-family="Helvetica" font-size="17" textLength="311">aws_bedrock_agent_knowledge_base</text><rect width="276" height="39.789" x="537.5" y="206.58" fill="#3D176E" rx="2.5" ry="2.5" style="stroke:#000d19;stroke-width:.5"/><circle cx="552.5" cy="226.475" r="11" fill="#ADD1B2" style="stroke:#181818;stroke-width:1"/><path d="M555.469 232.115q-.578.297-1.219.438-.64.156-1.344.156-2.5 0-3.828-1.64-1.312-1.657-1.312-4.782t1.312-4.781q1.328-1.656 3.828-1.656.703 0 1.344.156.656.156 1.219.453v2.719q-.625-.578-1.219-.844-.594-.281-1.219-.281-1.343 0-2.031 1.078-.687 1.062-.687 3.156t.687 3.172q.688 1.062 2.031 1.062.625 0 1.219-.265.594-.281 1.219-.86z"/><text x="571.5" y="232.36" fill="#D9B8FF" font-family="Helvetica" font-size="17" textLength="234">aws_bedrock_agent_version</text><rect width="310" height="39.789" x="520.5" y="7" fill="#3D176E" rx="2.5" ry="2.5" style="stroke:#000d19;stroke-width:.5"/><circle cx="535.5" cy="26.895" r="11" fill="#ADD1B2" style="stroke:#181818;stroke-width:1"/><path d="M538.469 32.535q-.578.297-1.219.438-.64.156-1.344.156-2.5 0-3.828-1.64-1.312-1.657-1.312-4.782t1.312-4.781q1.328-1.656 3.828-1.656.703 0 1.344.156.656.156 1.219.453v2.719q-.625-.578-1.219-.844-.594-.281-1.219-.281-1.343 0-2.031 1.078-.687 1.062-.687 3.156t.687 3.172q.688 1.062 2.031 1.062.625 0 1.219-.265.594-.281 1.219-.86z"/><text x="554.5" y="32.78" fill="#D9B8FF" font-family="Helvetica" font-size="17" textLength="268">aws_bedrock_foundation_model</text><rect width="233" height="39.789" x="466" y="306.37" fill="#3D176E" rx="2.5" ry="2.5" style="stroke:#000d19;stroke-width:.5"/><circle cx="481" cy="326.264" r="11" fill="#ADD1B2" style="stroke:#181818;stroke-width:1"/><path d="M483.969 331.905q-.578.297-1.219.438-.64.156-1.344.156-2.5 0-3.828-1.64-1.312-1.657-1.312-4.782t1.312-4.781q1.328-1.656 3.828-1.656.703 0 1.344.156.656.156 1.219.453v2.719q-.625-.579-1.219-.844-.594-.281-1.219-.281-1.344 0-2.031 1.078-.687 1.062-.687 3.156t.687 3.172q.688 1.062 2.031 1.062.625 0 1.219-.265.594-.281 1.219-.86z"/><text x="500" y="332.15" fill="#D9B8FF" font-family="Helvetica" font-size="17" textLength="191">aws_bedrock_guardrail</text><rect width="157" height="39.789" x="328" y="7" fill="#3D176E" rx="2.5" ry="2.5" style="stroke:#000d19;stroke-width:.5"/><circle cx="343" cy="26.895" r="11" fill="#ADD1B2" style="stroke:#181818;stroke-width:1"/><path d="M345.969 32.535q-.578.297-1.219.438-.64.156-1.344.156-2.5 0-3.828-1.64-1.312-1.657-1.312-4.782t1.312-4.781q1.328-1.656 3.828-1.656.703 0 1.344.156.656.156 1.219.453v2.719q-.625-.578-1.219-.844-.594-.281-1.219-.281-1.344 0-2.031 1.078-.687 1.062-.687 3.156t.687 3.172q.688 1.062 2.031 1.062.625 0 1.219-.265.594-.281 1.219-.86z"/><text x="362" y="32.78" fill="#D9B8FF" font-family="Helvetica" font-size="17" textLength="115">aws_iam_role</text><rect width="158" height="39.789" x="503.5" y="406.16" fill="#3D176E" rx="2.5" ry="2.5" style="stroke:#000d19;stroke-width:.5"/><circle cx="518.5" cy="426.055" r="11" fill="#ADD1B2" style="stroke:#181818;stroke-width:1"/><path d="M521.469 431.695q-.578.297-1.219.438-.64.156-1.344.156-2.5 0-3.828-1.64-1.312-1.657-1.312-4.782t1.312-4.781q1.328-1.656 3.828-1.656.703 0 1.344.156.656.156 1.219.453v2.719q-.625-.578-1.219-.844-.594-.281-1.219-.281-1.343 0-2.031 1.078-.687 1.062-.687 3.156t.687 3.172q.688 1.062 2.031 1.062.625 0 1.219-.265.594-.281 1.219-.86z"/><text x="537.5" y="431.94" fill="#D9B8FF" font-family="Helvetica" font-size="17" textLength="116">aws_kms_key</text><path fill="none" d="M375.28 147.01c-41.9 17.14-97.237 39.788-139.107 56.918" style="stroke:#1a83af;stroke-width:2"/><path fill="#1A83AF" d="m230.62 206.2 9.844.294-5.216-2.187 2.187-5.217z" style="stroke:#1a83af;stroke-width:2"/><path fill="none" d="M472.48 147.01c44.36 17.14 103.223 39.897 147.544 57.027" style="stroke:#1a83af;stroke-width:2"/><path fill="#1A83AF" d="m625.62 206.2-6.953-6.976 2.29 5.173-5.174 2.29z" style="stroke:#1a83af;stroke-width:2"/><path fill="none" d="M438.13 146.99c30.59 37.77 94.254 116.397 124.894 154.227" style="stroke:#1a83af;stroke-width:2"/><path fill="#1A83AF" d="m566.8 305.88-2.556-9.511-.591 5.626-5.626-.591z" style="stroke:#1a83af;stroke-width:2"/><path fill="none" d="M419.49 146.81c-5.32 40.45-12.24 136.19 29.01 199.35 18.16 27.8 44.325 44.644 72.306 57.194" style="stroke:#1a83af;stroke-width:2"/><path fill="#1A83AF" d="m526.28 405.81-6.575-7.333 2.013 5.287-5.287 2.012z" style="stroke:#1a83af;stroke-width:2"/><path fill="none" d="M657.13 246.8c-16.31 17.14-35.867 37.7-52.157 54.84" style="stroke:#1a83af;stroke-width:2"/><path fill="#1A83AF" d="m600.84 305.99 9.1-3.768-5.656.144-.143-5.655z" style="stroke:#1a83af;stroke-width:2"/><path fill="none" d="M691.54 246.49c18.37 24.24 43.68 66.93 24.96 99.67-16.08 28.13-41.046 44.785-68.856 57.135" style="stroke:#1a83af;stroke-width:2"/><path fill="#1A83AF" d="m642.16 405.73 9.849.003-5.28-2.032 2.033-5.28z" style="stroke:#1a83af;stroke-width:2"/><path fill="none" d="M625.52 47.22c-44.36 17.14-103.223 39.897-147.543 57.027" style="stroke:#1a83af;stroke-width:2"/><path fill="#1A83AF" d="m472.38 106.41 9.837.486-5.173-2.289 2.289-5.173z" style="stroke:#1a83af;stroke-width:2"/><path fill="none" d="M675.5 47.2v152.89" style="stroke:#1a83af;stroke-width:2"/><path fill="#1A83AF" d="m675.5 206.09 4-9-4 4-4-4z" style="stroke:#1a83af;stroke-width:2"/><path fill="none" d="M582.5 346.59v53.19" style="stroke:#1a83af;stroke-width:2"/><path fill="#1A83AF" d="m582.5 405.78 4-9-4 4-4-4z" style="stroke:#1a83af;stroke-width:2"/><path fill="none" d="M409.66 47.22c2.81 17.14 5.909 36.14 8.719 53.27" style="stroke:#1a83af;stroke-width:2"/><path fill="#1A83AF" d="m419.35 106.41 2.49-9.529-3.3 4.595-4.594-3.3z" style="stroke:#1a83af;stroke-width:2"/><path fill="none" d="M379.22 47.04c-21.45 15.42-51.77 38.02-76.72 59.75-37.85 32.96-74.447 70.832-97.097 95.002" style="stroke:#1a83af;stroke-width:2"/><path fill="#1A83AF" d="m201.3 206.17 9.073-3.832-5.654.184-.184-5.654z" style="stroke:#1a83af;stroke-width:2"/><path fill="none" d="M444.42 47.21c28.01 14.9 66.58 36.76 98.08 59.58 43.6 31.6 85.116 70.859 109.966 95.459" style="stroke:#1a83af;stroke-width:2"/><path fill="#1A83AF" d="m656.73 206.47-3.582-9.174.029 5.656-5.657.029z" style="stroke:#1a83af;stroke-width:2"/></svg>
